src/lib/packages/icons/src/assets/line/cloud-share.svg

<svg width="24" height="24" viewBox="0 0 24 24" fill="none" xmlns="http://www.w3.org/2000/svg">
<path d="M22.75 13C22.75 16.171 20.171 18.75 17 18.75H13C12.586 18.75 12.25 18.414 12.25 18C12.25 17.586 12.586 17.25 13 17.25H17C19.344 17.25 21.25 15.344 21.25 13C21.25 10.656 19.344 8.75 17 8.75C16.717 8.75 16.4449 8.77503 16.1689 8.82703C15.8609 8.88503 15.5551 8.74801 15.3931 8.48401C15.1011 8.01301 14.7301 7.57298 14.2891 7.17798C13.2511 6.25798 11.904 5.75 10.5 5.75C8.532 5.75 6.72411 6.74199 5.66211 8.40399C5.44011 8.75199 4.97695 8.856 4.62695 8.633C4.27695 8.41 4.17495 7.94598 4.39795 7.59698C5.73595 5.50198 8.017 4.25098 10.5 4.25098C12.271 4.25098 13.9721 4.893 15.2871 6.06C15.7071 6.436 16.0761 6.84498 16.3911 7.28198C16.5921 7.26098 16.794 7.25098 17 7.25098C20.171 7.24998 22.75 9.829 22.75 13ZM7.12305 13.719L5.37598 14.592C5.40198 14.724 5.41699 14.86 5.41699 14.999C5.41699 15.138 5.40198 15.274 5.37598 15.406L7.12305 16.279C7.50505 15.854 8.05199 15.582 8.66699 15.582C9.81499 15.582 10.75 16.517 10.75 17.665C10.75 18.814 9.81499 19.748 8.66699 19.748C7.52499 19.748 6.59696 18.825 6.58496 17.687L4.55908 16.674C4.21408 16.927 3.79301 17.081 3.33301 17.081C2.18501 17.081 1.25 16.146 1.25 14.998C1.25 13.85 2.18501 12.915 3.33301 12.915C3.79301 12.915 4.21408 13.069 4.55908 13.322L6.58496 12.309C6.59696 11.171 7.52499 10.248 8.66699 10.248C9.81499 10.248 10.75 11.183 10.75 12.331C10.75 13.48 9.81499 14.414 8.66699 14.414C8.05199 14.417 7.50405 14.144 7.12305 13.719ZM8.08301 12.333C8.08301 12.655 8.34499 12.916 8.66699 12.916C8.98799 12.916 9.25 12.654 9.25 12.333C9.25 12.011 8.98799 11.75 8.66699 11.75C8.34499 11.75 8.08301 12.012 8.08301 12.333ZM3.33301 15.583C3.65501 15.583 3.91699 15.321 3.91699 15C3.91699 14.679 3.65501 14.417 3.33301 14.417C3.01201 14.417 2.75 14.679 2.75 15C2.75 15.321 3.01201 15.583 3.33301 15.583ZM8.08301 17.667C8.08301 17.989 8.34499 18.25 8.66699 18.25C8.98799 18.25 9.25 17.988 9.25 17.667C9.25 17.345 8.98799 17.084 8.66699 17.084C8.34499 17.083 8.08301 17.345 8.08301 17.667Z" fill="currentColor"/>
</svg>

<svg xmlns="http://www.w3.org/2000/svg" width="24" height="24" fill="none"><path fill="currentColor" d="M22.75 13A5.756 5.756 0 0 1 17 18.75h-4a.75.75 0 0 1 0-1.5h4A4.254 4.254 0 0 0 21.25 13 4.254 4.254 0 0 0 17 8.75a4.44 4.44 0 0 0-.831.077.745.745 0 0 1-.776-.343 6.015 6.015 0 0 0-1.104-1.306A5.706 5.706 0 0 0 10.5 5.75a5.717 5.717 0 0 0-4.838 2.654.75.75 0 1 1-1.264-.807A7.21 7.21 0 0 1 10.5 4.251c1.771 0 3.472.642 4.787 1.809.42.376.79.785 1.104 1.222A5.754 5.754 0 0 1 22.75 13Zm-15.627.719-1.747.873a2.104 2.104 0 0 1 0 .814l1.747.873a2.07 2.07 0 0 1 1.544-.697c1.148 0 2.083.935 2.083 2.083a2.085 2.085 0 0 1-2.083 2.083 2.085 2.085 0 0 1-2.082-2.061l-2.026-1.013a2.064 2.064 0 0 1-1.226.407 2.086 2.086 0 0 1-2.083-2.083c0-1.148.935-2.083 2.083-2.083.46 0 .881.154 1.226.407l2.026-1.013a2.085 2.085 0 0 1 2.082-2.061c1.148 0 2.083.935 2.083 2.083a2.085 2.085 0 0 1-2.083 2.083 2.056 2.056 0 0 1-1.544-.695Zm.96-1.386a.584.584 0 1 0 1.168-.002.584.584 0 0 0-1.168.002Zm-4.75 3.25A.584.584 0 0 0 3.917 15a.584.584 0 0 0-1.167 0c0 .321.262.583.583.583Zm4.75 2.084a.584.584 0 1 0 1.168-.002.584.584 0 0 0-1.168.002Z"/></svg>
